!!!!SEGMENT: pl-kk--kk-i-423--001-002_golabek-jakub--missa-1a-christe.krn
!!!cenid: 17xx:2552
!!!COM: Gołąbek, Jakub
!!!COM-rismID: pe30008748
!!!CDT: 1739-1789/03/30
!!!CNT: Polish
!!!OPR: Missa 1a
!!!OTL: Christe
!!!OMV: 002
!!!PDT:
!!!AGN: Sacred; Mass
!!!YEC: Copyright 2022 Narodowy Instytut Fryderyka Chopina (https://polishscores.org)
!!!YEM: License CC-BY-4.0 (https://creativecommons.org/licenses/by/4.0)
!!!SMS-siglum: PL-Kk
!!!SMS-shelfmark: Kk.I.423
!!!SMS-variant:
!!!SMS-altvar:
!!!SMS-shelfwork: 001-002 M
!!!NIFC-rismSourceID: 1001147334
!!!NIFC-rismChildID: 1001147336
!!!NIFC-islandoraID:
!!!URL-pdf-islandora: https://repozytorium.nifc.pl/islandora/object/pl-kk%3A10566/datastream/PDF/view
!!!URL-scan: https://polish.musicsources.pl/pl/lokalizacje/galeria/rekopisy/6034-masses/3 @EN{Scan on Polish Music Sources Website} @PL{Skany w portalu Dziedzictwo Muzyki Polskiej w otwartym dostępie}
!!!IIIF:
!!!ONB-nifc: UWAGA: C – skan 3-4, A – 7-8, T – 11-12, B – 15-16. Części Mszy: Kyrie, Christe, Et in terra, Quoniam, Sanctus (+Osanna), Benedictus, Agnus Dei.
!!!AIN: 1 alto 1 bass 1 canto 1 tenor
!!!key:
**kern	**text	**dynam	**kern	**text	**dynam	**kern	**text	**dynam	**kern	**text	**dynam
*part4	*part4	*part4	*part3	*part3	*part3	*part2	*part2	*part2	*part1	*part1	*part1
*staff4	*staff4	*	*staff3	*staff3	*	*staff2	*staff2	*	*staff1	*staff1	*
*I"Basso	*	*	*I"Tenore	*	*	*I"Alto	*	*	*I"Canto	*	*
*I'B.	*	*	*I'T.	*	*	*I'A.	*	*	*I'C.	*	*
*Ibass	*	*	*Itenor	*	*	*Ialto	*	*	*Icanto	*	*
*ICvox	*	*	*ICvox	*	*	*ICvox	*	*	*ICvox	*	*
*clefF4	*	*	*clefC4	*	*	*clefC3	*	*	*clefC1	*	*
*k[]	*	*	*k[]	*	*	*k[]	*	*	*k[]	*	*
*C:	*	*	*C:	*	*	*C:	*	*	*C:	*	*
*M2/2	*	*	*M2/2	*	*	*M2/2	*	*	*M2/2	*	*
*met(c|)	*	*	*met(c|)	*	*	*met(c|)	*	*	*met(c|)	*	*
=1	=1	=1	=1	=1	=1	=1	=1	=1	=1	=1	=1
*2\right	*	*	*2\right	*	*	*2\right	*	*	*2\right	*	*
2A\	Chri-	.	2e\	Chri-	.	2g\	Chri-	.	2cc\	Chry-	.
8G\L	-ste	.	8d\L	-ste	.	8f\L	-ste	.	4g/	-ste	.
8F\J	.	.	8c\J	.	.	8e\J	.	.	.	.	.
8E\L	e-	.	8B\L	e-	.	8d\L	e-	.	4g/	e-	.
8F\J	.	.	8c\J	.	.	8c\J	.	.	.	.	.
=2	=2	=2	=2	=2	=2	=2	=2	=2	=2	=2	=2
4A\	-lei-	.	4e\	-lei-	.	4c/	-lei-	.	4g/	-lei-	.
4G\	-son	.	4d\	-son	.	4B/	-son	.	4g/	-son	.
4r	.	.	4r	.	.	4r	.	.	4r	.	.
4G\	e-	.	4d\	e-	.	4f\	e-	.	4b\	e-	.
=3	=3	=3	=3	=3	=3	=3	=3	=3	=3	=3	=3
.	.	.	.	.	.	8qqg/	.	.	.	.	.
4G\	-lei-	.	4d\	-lei-	.	4f\	-lei-	.	4g/	-lei-	.
4F\	-son	.	4c\	-son	.	4e\	-son	.	4g/	-son	.
4r	.	.	4r	.	.	4r	.	.	4r	.	.
4A\	e-	.	4e\	e-	.	4g\	e-	.	4g/	e-	.
=4	=4	=4	=4	=4	=4	=4	=4	=4	=4	=4	=4
4A\	-lei-	.	4e\	-lei-	.	4g\	-lei-	.	2cc\	-lei-	.
8B\L	.	.	8f\L	.	.	8a\L	.	.	.	.	.
8A\J	.	.	8e\J	.	.	8g\J	.	.	.	.	.
8A\L	.	.	8e\L	.	.	8g\L	.	.	4a\	.	.
8G\	.	.	8d\	.	.	8f\	.	.	.	.	.
8G\	.	.	8d\	.	.	8f\	.	.	4g\	.	.
8F\J	.	.	8c\J	.	.	8e\J	.	.	.	.	.
=5	=5	=5	=5	=5	=5	=5	=5	=5	=5	=5	=5
2E\	-son	.	2B\	-son	.	2d\	-son	.	2g\	-son	.
2r	.	.	2r	.	.	2r	.	.	2r	.	.
!LO:LB:g=original	!	!	!LO:LB:g=original	!	!	!	!	!	!	!	!
=6	=6	=6	=6	=6	=6	=6	=6	=6	=6	=6	=6
!	!	!LO:DY:a	!	!	!LO:DY:a	!	!	!LO:DY:a	!	!	!
2F\	Chri-	p	2c\	Chri-	p	4.e\	Chri-	p	4.g\	Chri-	p
.	.	.	.	.	.	8f\	.	.	8a\	-ste	.
!	!	!	!	!	!	!	!	!	!LO:N:vis=8	!	!
4F\	-ste	.	4c\	-ste	.	4g\	-ste	.	4b-X\	e-	.
4F\	e-	.	4c\	e-	.	4g\	e-	.	4b-\	.	.
!	!	!	!	!	!	!LO:LB:g=original	!	!	!LO:LB:g=original	!	!
=7	=7	=7	=7	=7	=7	=7	=7	=7	=7	=7	=7
2F\	-lei-	.	2c\	-lei-	.	8a\L	-lei-	.	8cc\L	-lei-	.
.	.	.	.	.	.	8f\	.	.	8a\	.	.
.	.	.	.	.	.	8e\	.	.	8g\	.	.
.	.	.	.	.	.	8g\J	.	.	8b-X\J	.	.
2F\	-son	.	2c\	-son	.	2f\	-son	.	2a\	-son	.
=8	=8	=8	=8	=8	=8	=8	=8	=8	=8	=8	=8
2G\	Chri-	.	2d\	Chri-	.	4.f#X\	Chri-	.	4.a\	Chri-	.
.	.	.	.	.	.	8g\	.	.	8bn\	.	.
4G\	-ste	.	4d\	-ste	.	4a\	-ste	.	4cc\	-ste	.
4G\	e-	.	4d\	e-	.	4a\	e-	.	4cc\	e-	.
=9	=9	=9	=9	=9	=9	=9	=9	=9	=9	=9	=9
2G\	-lei-	.	2d\	-lei-	.	8b\L	-lei-	.	8dd\L	-lei-	.
.	.	.	.	.	.	8g\	.	.	8b\	.	.
.	.	.	.	.	.	8f#X\	.	.	8a\	.	.
.	.	.	.	.	.	8a\J	.	.	8cc\J	.	.
2G\	-son	.	2d\	-son	.	2g\	-son	.	2b\	-son	.
=10	=10	=10	=10	=10	=10	=10	=10	=10	=10	=10	=10
!	!	!LO:DY:a	!	!	!LO:DY:a	!	!	!LO:DY:a	!	!	!
4.G\	Chri-	f	4.d\	Chri-	f	4.d\	Chri-	f	4.b\	Chri-	f
8F\	-ste	.	8c\	-ste	.	8e\	.	.	8cc\	.	.
4E\	.	.	4B\	.	.	4fn\	-ste	.	4dd\	-ste	.
4E\	e-	.	4B\	e-	.	4f\	e-	.	4dd\	e-	.
=11	=11	=11	=11	=11	=11	=11	=11	=11	=11	=11	=11
2C/	-lei-	.	2G/	-lei-	.	8e\L	-lei-	.	8cc\L	-lei-	.
.	.	.	.	.	.	8g\	.	.	8ee\	.	.
.	.	.	.	.	.	8f\	.	.	8dd\	.	.
.	.	.	.	.	.	8a\J	.	.	8ff\J	.	.
4F\	-son	.	4c\	-son	.	4g\	-son	.	4ee\	-son	.
4F\	e-	.	4c\	e-	.	4a\	e-	.	4ff\	e-	.
!LO:LB:g=original	!	!	!LO:LB:g=original	!	!	!	!	!	!	!	!
=12	=12	=12	=12	=12	=12	=12	=12	=12	=12	=12	=12
4F\	-lei-	.	4c\	-lei-	.	4g\	-lei-	.	4ee\	-lei-	.
4D\	.	.	4A\	.	.	8a\L	.	.	8ff\L	.	.
.	.	.	.	.	.	8f\J	.	.	8dd\J	.	.
!	!	!	!	!	!	!	!	!	!LO:LB:g=original	!	!
2C/	.	.	2G/	.	.	4e\	.	.	4cc\	.	.
.	.	.	.	.	.	8f\L	.	.	8dd\L	.	.
.	.	.	.	.	.	8d\J	.	.	8b\J	.	.
=13	=13	=13	=13	=13	=13	=13	=13	=13	=13	=13	=13
.	.	.	.	.	.	8qqd/	.	.	.	.	.
2C/	-son	.	2G/	-son	.	2e\	-son	.	2cc\	-son	.
2r	.	.	2r	.	.	2r	.	.	2r	.	.
!	!	!	!	!	!	!LO:LB:g=original	!	!	!	!	!
=14	=14	=14	=14	=14	=14	=14	=14	=14	=14	=14	=14
!	!	!LO:DY:a	!	!	!LO:DY:a	!	!	!LO:DY:a	!	!	!
2F\	Chri-	p	2c\	Chri-	p	4.e\	Chri-	p	4.g\	Chri-	p
.	.	.	.	.	.	8f\	.	.	8a\	.	.
4F\	-ste	.	4c\	-ste	.	4g\	-ste	.	4b-X\	-ste	.
4F\	e-	.	4c\	e-	.	4g\	e-	.	4b-\	e-	.
=15	=15	=15	=15	=15	=15	=15	=15	=15	=15	=15	=15
2F\	-lei-	.	2c\	-lei-	.	8a\L	-lei-	.	8cc\L	-lei-	.
.	.	.	.	.	.	8f\	.	.	8a\	.	.
.	.	.	.	.	.	8e\	.	.	8g\	.	.
.	.	.	.	.	.	8g\J	.	.	8b-X\J	.	.
2F\	-son	.	2c\	-son	.	4f\	-son	.	2a\	-son	.
.	.	.	.	.	.	4r	.	.	.	.	.
=16	=16	=16	=16	=16	=16	=16	=16	=16	=16	=16	=16
2G\	Chri-	.	2d\	Chri-	.	4.f#X\	Chri-	.	4.a\	Chri-	.
.	.	.	.	.	.	8g\	.	.	8bn\	.	.
2G\	-ste	.	2d\	-ste	.	4a\	-ste	.	4cc\	-ste	.
.	.	.	.	.	.	4a\	e-	.	4cc\	e-	.
=17	=17	=17	=17	=17	=17	=17	=17	=17	=17	=17	=17
2G\	lei-	.	2d\	lei-	.	8b\L	lei-	.	8dd\L	-lei-	.
.	.	.	.	.	.	8g\	.	.	8b\	.	.
.	.	.	.	.	.	8f#X\	.	.	8a\	.	.
.	.	.	.	.	.	8a\J	.	.	8cc\J	.	.
2G\	-son	.	2d\	-son	.	2g\	-son	.	2b\	-son	.
!	!	!	!	!	!	!	!	!	!LO:LB:g=original	!	!
=18	=18	=18	=18	=18	=18	=18	=18	=18	=18	=18	=18
!	!	!LO:DY:a	!	!	!LO:DY:a	!	!	!LO:DY:a	!	!	!LO:DY:a
4.G\	Chri-	f	4.d\	Chri-	f	4.d\	Chri-	f	4.b\	Chri-	f
8F\	-ste	.	8c\	-ste	.	8e\	.	.	8cc\	.	.
4E\	.	.	4B\	.	.	4fn\	-ste	.	4dd\	-ste	.
4E\	e-	.	4B\	e-	.	4f\	e-	.	4dd\	e-	.
!LO:LB:g=original	!	!	!LO:LB:g=original	!	!	!	!	!	!	!	!
=19	=19	=19	=19	=19	=19	=19	=19	=19	=19	=19	=19
2C/	-lei-	.	2G/	-lei-	.	8e\L	-lei-	.	8cc\L	-lei-	.
.	.	.	.	.	.	8g\	.	.	8ee\	.	.
.	.	.	.	.	.	8f\	.	.	8dd\	.	.
.	.	.	.	.	.	8a\J	.	.	8ff\J	.	.
4F\	-son	.	4c\	-son	.	4g\	-son	.	4ee\	-son	.
4F\	e-	.	4c\	e-	.	4a\	e-	.	4ff\	e	.
!	!	!	!	!	!	!LO:LB:g=original	!	!	!	!	!
=20	=20	=20	=20	=20	=20	=20	=20	=20	=20	=20	=20
4F\	-lei-	.	4c\	-lei-	.	4g\	-lei-	.	4ee\	lei-	.
4D/	.	.	4A/	.	.	8a\L	.	.	8ff\L	.	.
.	.	.	.	.	.	8f\J	.	.	8dd\J	.	.
2C/	.	.	2G/	.	.	4e\	.	.	4cc\	.	.
.	.	.	.	.	.	8f\L	.	.	8dd\L	.	.
.	.	.	.	.	.	8d\J	.	.	8b\J	.	.
=21	=21	=21	=21	=21	=21	=21	=21	=21	=21	=21	=21
2C/	-son	.	2G/	-son	.	2e\	-son	.	2cc\	-son	.
2r	.	.	2r	.	.	2r	.	.	2r	.	.
!LO:TX:a:t=Kyrie Da Capo	!	!	!LO:TX:a:t=Kyrie Da Capo	!	!	!	!	!	!LO:TX:a:t=Kyrie da Capo	!	!
==	==	==	==	==	==	==	==	==	==	==	==
*-	*-	*-	*-	*-	*-	*-	*-	*-	*-	*-	*-
!!!system-decoration: [(s1,s2,s3,s4)]
!!!ENC: Berenika Jozajtis
!!!END: 2024-01-29
!!!ENC: Leszek Kubiak
!!!END: 2024-07-31
